resources/svg/caret-vertical-circle-o.svg

<svg xmlns="http://www.w3.org/2000/svg" viewBox="0 0 15 15" fill="none"><path d="M10.3123 9.39043L10.7028 9.07809L10.0781 8.29722L9.68765 8.60957L10.3123 9.39043ZM7.5 11L7.18765 11.3904L7.5 11.6403L7.81235 11.3904L7.5 11ZM5.31235 8.60957L4.92191 8.29722L4.29722 9.07809L4.68765 9.39043L5.31235 8.60957ZM4.68765 5.60957L4.29722 5.92191L4.92191 6.70278L5.31235 6.39043L4.68765 5.60957ZM7.5 4L7.81235 3.60957L7.5 3.35969L7.18765 3.60957L7.5 4ZM9.68765 6.39043L10.0781 6.70278L10.7028 5.92191L10.3123 5.60957L9.68765 6.39043ZM9.68765 8.60957L7.18765 10.6096L7.81235 11.3904L10.3123 9.39043L9.68765 8.60957ZM7.81235 10.6096L5.31235 8.60957L4.68765 9.39043L7.18765 11.3904L7.81235 10.6096ZM5.31235 6.39043L7.81235 4.39043L7.18765 3.60957L4.68765 5.60957L5.31235 6.39043ZM7.18765 4.39043L9.68765 6.39043L10.3123 5.60957L7.81235 3.60957L7.18765 4.39043ZM7.5 14C3.91015 14 1 11.0899 1 7.5H0C0 11.6421 3.35786 15 7.5 15V14ZM14 7.5C14 11.0899 11.0899 14 7.5 14V15C11.6421 15 15 11.6421 15 7.5H14ZM7.5 1C11.0899 1 14 3.91015 14 7.5H15C15 3.35786 11.6421 0 7.5 0V1ZM7.5 0C3.35786 0 0 3.35786 0 7.5H1C1 3.91015 3.91015 1 7.5 1V0Z" fill="black"/></svg>

<svg xmlns="http://www.w3.org/2000/svg" viewBox="0 0 15 15" fill="none"><path d="M10.312 9.39l.39-.312-.624-.78-.39.312.624.78zM7.5 11l-.312.39.312.25.312-.25L7.5 11zM5.312 8.61l-.39-.313-.625.781.39.312.625-.78zm-.624-3l-.39.312.624.78.39-.312-.624-.78zM7.5 4l.312-.39-.312-.25-.312.25L7.5 4zm2.188 2.39l.39.313.625-.781-.39-.312-.625.78zm0 2.22l-2.5 2 .624.78 2.5-2-.624-.78zm-1.876 2l-2.5-2-.624.78 2.5 2 .624-.78zm-2.5-4.22l2.5-2-.624-.78-2.5 2 .624.78zm1.876-2l2.5 2 .624-.78-2.5-2-.624.78zM7.5 14A6.5 6.5 0 011 7.5H0A7.5 7.5 0 007.5 15v-1zM14 7.5A6.5 6.5 0 017.5 14v1A7.5 7.5 0 0015 7.5h-1zM7.5 1A6.5 6.5 0 0114 7.5h1A7.5 7.5 0 007.5 0v1zm0-1A7.5 7.5 0 000 7.5h1A6.5 6.5 0 017.5 1V0z" fill="currentColor"/></svg>
